src/hbcore/resources/themes/icons/hbdefault/scalable/qtg_mono_bt_pair.svg

<?xml version="1.0" encoding="UTF-8"?>
<!DOCTYPE svg PUBLIC "-//W3C//DTD SVG 1.1 Tiny//EN" "http://www.w3.org/Graphics/SVG/1.1/DTD/svg11-tiny.dtd">
<svg baseProfile="tiny" height="30px" version="1.1" viewBox="0 0 30 30" width="30px" x="0px" xmlns="http://www.w3.org/2000/svg" xmlns:xlink="http://www.w3.org/1999/xlink" y="0px">
<g fill-opacity="0.5" stroke-opacity="0.5">
<rect fill="none" height="30" width="30"/>
</g>
<path d="M7,0v10.28l-4.437-4.294-1.563,1.563,5.543,5.336-5.543,5.41,1.563,1.562,4.437-4.3v10.45l8-8-5.539-5.115,5.539-4.88-8-8zm4.48,18.02l-2.473,2.473v-4.944l2.473,2.47zm-2.476-7.74v-4.944l2.473,2.473-2.476,2.471z" fill-rule="evenodd"/>
<path d="M20,4v10.28l-4.438-4.296-1.56,1.566,5.543,5.336-5.54,5.4,1.563,1.562,4.44-4.3v10.45l8-8-5.539-5.115,5.54-4.88-8-8zm4.48,18.02l-2.473,2.473v-4.944l2.47,2.47zm-2.48-7.74v-4.944l2.473,2.473-2.47,2.47z" fill-rule="evenodd"/>
</svg>

<?xml version="1.0" encoding="UTF-8"?>
<!DOCTYPE svg PUBLIC "-//W3C//DTD SVG 1.1 Tiny//EN" "http://www.w3.org/Graphics/SVG/1.1/DTD/svg11-tiny.dtd">
<svg baseProfile="tiny" height="30px" version="1.1" viewBox="0 0 30 30" width="30px" x="0px" xmlns="http://www.w3.org/2000/svg" xmlns:xlink="http://www.w3.org/1999/xlink" y="0px">
<g fill-opacity="0.5" stroke-opacity="0.5">
<rect fill="none" height="30" width="30"/>
</g>
<path d="M7,0v10.282L2.563,5.986L1,7.549l5.543,5.336L1,18.286l1.563,1.562L7,15.554V26  l8-8l-5.539-5.115L15,8L7,0z M11.477,18.025l-2.473,2.473v-4.944L11.477,18.025z M9.004,10.282V5.336l2.473,2.473L9.004,10.282z" fill-rule="evenodd"/>
<path d="M20,4v10.282l-4.438-4.296L14,11.549l5.543,5.336L14,22.286l1.563,1.562L20,19.554  V30l8-8l-5.539-5.115L28,12L20,4z M24.477,22.025l-2.473,2.473v-4.944L24.477,22.025z M22.004,14.282V9.336l2.473,2.473  L22.004,14.282z" fill-rule="evenodd"/>
</svg>
